inst/assets/svg/wi-night-alt-sleet.svg

<?xml version="1.0" encoding="UTF-8"?>
<svg xmlns="http://www.w3.org/2000/svg" xmlns:xlink="http://www.w3.org/1999/xlink" width="30pt" height="30pt" viewBox="0 0 30 30" version="1.1">
<g id="surface661">
<path style=" stroke:none;fill-rule:nonzero;fill:rgb(0%,0%,0%);fill-opacity:1;" d="M 4.089844 17.128906 L 4.089844 16.761719 C 4.128906 15.640625 4.511719 14.648438 5.21875 13.789063 C 5.929688 12.929688 6.828125 12.371094 7.898438 12.121094 C 8.210938 10.761719 8.921875 9.640625 10.011719 8.761719 C 11.101563 7.878906 12.359375 7.449219 13.769531 7.449219 C 14.511719 7.449219 15.300781 7.601563 16.148438 7.910156 C 16.429688 7.449219 16.761719 7.050781 17.140625 6.710938 C 17.519531 6.371094 17.910156 6.109375 18.320313 5.921875 C 18.730469 5.738281 19.121094 5.601563 19.511719 5.519531 C 19.890625 5.441406 20.269531 5.398438 20.640625 5.398438 C 21.03125 5.398438 21.441406 5.441406 21.878906 5.53125 L 22.679688 5.78125 C 22.800781 5.839844 22.851563 5.910156 22.820313 6.011719 L 22.699219 6.628906 C 22.628906 6.921875 22.601563 7.199219 22.601563 7.46875 C 22.601563 7.78125 22.648438 8.089844 22.75 8.421875 C 22.851563 8.738281 22.988281 9.058594 23.191406 9.371094 C 23.390625 9.679688 23.648438 9.960938 23.988281 10.21875 C 24.328125 10.480469 24.710938 10.671875 25.148438 10.800781 L 25.769531 10.96875 C 25.871094 11 25.921875 11.050781 25.921875 11.128906 C 25.921875 11.171875 25.921875 11.191406 25.910156 11.199219 L 25.71875 11.878906 C 25.480469 12.890625 24.96875 13.769531 24.210938 14.5 C 24.648438 15.261719 24.871094 16.078125 24.871094 16.949219 C 24.871094 18.289063 24.410156 19.441406 23.480469 20.398438 C 22.550781 21.371094 21.421875 21.871094 20.089844 21.910156 C 19.96875 21.910156 19.898438 21.851563 19.898438 21.71875 L 19.898438 20.359375 C 19.898438 20.238281 19.960938 20.179688 20.089844 20.179688 C 20.960938 20.121094 21.691406 19.769531 22.289063 19.148438 C 22.890625 18.53125 23.191406 17.789063 23.191406 16.941406 C 23.191406 16.050781 22.871094 15.28125 22.21875 14.648438 C 21.570313 14.019531 20.800781 13.699219 19.890625 13.699219 L 18.269531 13.699219 C 18.160156 13.699219 18.101563 13.640625 18.101563 13.519531 L 18.03125 12.941406 C 17.921875 11.871094 17.449219 10.960938 16.628906 10.230469 C 15.808594 9.5 14.859375 9.128906 13.769531 9.128906 C 12.679688 9.128906 11.71875 9.5 10.921875 10.230469 C 10.109375 10.960938 9.648438 11.871094 9.550781 12.949219 L 9.480469 13.46875 C 9.480469 13.578125 9.410156 13.640625 9.28125 13.640625 L 8.75 13.710938 C 7.910156 13.808594 7.210938 14.171875 6.648438 14.78125 C 6.078125 15.398438 5.800781 16.121094 5.800781 16.949219 L 5.800781 16.96875 L 5.808594 16.980469 L 5.828125 16.980469 C 5.828125 17.5 5.949219 18 6.191406 18.460938 C 6.429688 18.921875 6.75 19.300781 7.160156 19.601563 L 7.171875 19.601563 L 7.191406 19.621094 C 7.410156 19.78125 7.609375 19.890625 7.808594 19.96875 C 8.148438 20.121094 8.5 20.199219 8.878906 20.210938 C 8.988281 20.210938 9.050781 20.269531 9.050781 20.378906 L 9.050781 21.71875 C 9.050781 21.839844 8.988281 21.898438 8.878906 21.898438 C 7.949219 21.859375 7.101563 21.578125 6.328125 21.078125 L 6.320313 21.078125 C 5.660156 20.648438 5.128906 20.089844 4.730469 19.390625 C 4.328125 18.691406 4.121094 17.941406 4.089844 17.128906 Z M 9.589844 24.101563 C 9.589844 24.070313 9.601563 24.03125 9.609375 23.96875 C 9.621094 23.910156 9.628906 23.878906 9.628906 23.851563 L 9.71875 23.261719 C 9.789063 23.019531 9.921875 22.851563 10.128906 22.730469 C 10.339844 22.609375 10.558594 22.589844 10.808594 22.648438 C 11.039063 22.71875 11.199219 22.859375 11.320313 23.058594 C 11.429688 23.269531 11.449219 23.480469 11.390625 23.691406 L 11.25 24.289063 C 11.148438 24.71875 10.898438 24.941406 10.488281 24.941406 C 10.460938 24.941406 10.410156 24.941406 10.339844 24.929688 C 10.269531 24.921875 10.230469 24.921875 10.210938 24.921875 C 10 24.859375 9.851563 24.75 9.75 24.589844 C 9.640625 24.429688 9.589844 24.269531 9.589844 24.101563 Z M 10.328125 21.160156 C 10.328125 20.921875 10.410156 20.730469 10.558594 20.570313 C 10.710938 20.410156 10.910156 20.339844 11.148438 20.339844 C 11.390625 20.339844 11.578125 20.421875 11.738281 20.570313 C 11.898438 20.71875 11.96875 20.921875 11.96875 21.160156 C 11.96875 21.390625 11.890625 21.589844 11.738281 21.738281 C 11.589844 21.890625 11.390625 21.96875 11.148438 21.96875 C 10.921875 21.96875 10.730469 21.890625 10.578125 21.71875 C 10.421875 21.570313 10.328125 21.378906 10.328125 21.160156 Z M 11.96875 27.160156 C 11.96875 27.121094 11.980469 27.050781 12.011719 26.941406 L 12.140625 26.351563 C 12.210938 26.121094 12.351563 25.949219 12.550781 25.839844 C 12.761719 25.71875 12.96875 25.699219 13.179688 25.769531 C 13.410156 25.808594 13.589844 25.941406 13.710938 26.140625 C 13.828125 26.339844 13.859375 26.570313 13.789063 26.820313 L 13.660156 27.410156 C 13.558594 27.820313 13.289063 28.019531 12.859375 28.019531 C 12.789063 28.019531 12.699219 28.011719 12.621094 27.988281 C 12.398438 27.929688 12.238281 27.820313 12.128906 27.660156 C 12.03125 27.488281 11.96875 27.328125 11.96875 27.160156 Z M 12.761719 24.25 C 12.761719 24.019531 12.839844 23.828125 12.988281 23.671875 C 13.148438 23.511719 13.339844 23.441406 13.578125 23.441406 C 13.820313 23.441406 14.011719 23.519531 14.171875 23.671875 C 14.328125 23.828125 14.398438 24.019531 14.398438 24.25 C 14.398438 24.488281 14.320313 24.679688 14.171875 24.839844 C 14.011719 25 13.820313 25.070313 13.578125 25.070313 C 13.351563 25.070313 13.160156 24.988281 13 24.828125 C 12.839844 24.671875 12.761719 24.480469 12.761719 24.25 Z M 13.378906 21.980469 C 13.378906 21.890625 13.390625 21.800781 13.410156 21.710938 L 13.640625 20.808594 C 13.710938 20.578125 13.851563 20.398438 14.050781 20.28125 C 14.261719 20.160156 14.46875 20.128906 14.691406 20.199219 C 14.929688 20.269531 15.101563 20.398438 15.21875 20.601563 C 15.339844 20.800781 15.359375 21.011719 15.289063 21.230469 L 15.03125 22.128906 C 14.949219 22.410156 14.808594 22.589844 14.621094 22.691406 C 14.429688 22.789063 14.210938 22.808594 13.980469 22.75 C 13.78125 22.710938 13.628906 22.609375 13.53125 22.449219 C 13.410156 22.289063 13.371094 22.128906 13.378906 21.980469 Z M 16.140625 24.121094 C 16.140625 24.089844 16.140625 24.039063 16.148438 23.988281 C 16.160156 23.941406 16.160156 23.898438 16.160156 23.878906 L 16.25 23.289063 C 16.320313 23.050781 16.449219 22.878906 16.660156 22.761719 C 16.871094 22.640625 17.089844 22.621094 17.339844 22.679688 C 17.570313 22.75 17.738281 22.890625 17.851563 23.089844 C 17.96875 23.300781 17.988281 23.511719 17.921875 23.71875 L 17.78125 24.320313 C 17.679688 24.761719 17.429688 24.980469 17.019531 24.980469 C 16.988281 24.980469 16.941406 24.96875 16.878906 24.960938 C 16.820313 24.949219 16.769531 24.941406 16.738281 24.941406 C 16.539063 24.878906 16.390625 24.769531 16.289063 24.609375 C 16.191406 24.449219 16.140625 24.289063 16.140625 24.121094 Z M 16.878906 21.179688 C 16.878906 20.941406 16.960938 20.75 17.109375 20.589844 C 17.261719 20.429688 17.460938 20.359375 17.699219 20.359375 C 17.941406 20.359375 18.128906 20.441406 18.289063 20.589844 C 18.449219 20.75 18.519531 20.941406 18.519531 21.179688 C 18.519531 21.410156 18.441406 21.601563 18.289063 21.761719 C 18.128906 21.921875 17.941406 21.988281 17.699219 21.988281 C 17.460938 21.988281 17.269531 21.910156 17.121094 21.75 C 16.96875 21.601563 16.878906 21.410156 16.878906 21.179688 Z M 17.589844 8.820313 C 18.628906 9.671875 19.289063 10.71875 19.570313 11.980469 L 19.898438 11.980469 C 21.128906 11.980469 22.199219 12.371094 23.121094 13.160156 C 23.460938 12.851563 23.710938 12.511719 23.878906 12.121094 C 23.261719 11.820313 22.730469 11.421875 22.269531 10.910156 C 21.820313 10.398438 21.480469 9.851563 21.25 9.25 C 21.019531 8.648438 20.910156 8.03125 20.910156 7.390625 L 20.910156 7.089844 L 20.691406 7.089844 C 20.070313 7.089844 19.480469 7.238281 18.921875 7.539063 C 18.359375 7.839844 17.921875 8.269531 17.589844 8.820313 Z M 17.589844 8.820313 "/>
</g>
</svg>

<?xml version="1.0" encoding="utf-8"?>
<!-- Generator: Adobe Illustrator 22.0.1, SVG Export Plug-In . SVG Version: 6.00 Build 0)  -->
<svg version="1.1" id="Layer_1" xmlns="http://www.w3.org/2000/svg" xmlns:xlink="http://www.w3.org/1999/xlink" x="0px" y="0px"
	 viewBox="0 0 30 30" style="enable-background:new 0 0 30 30;" xml:space="preserve">
<path d="M4.09,17.13v-0.37c0.04-1.12,0.42-2.11,1.13-2.97c0.71-0.86,1.61-1.42,2.68-1.67c0.31-1.36,1.02-2.48,2.11-3.36
	s2.35-1.31,3.76-1.31c0.74,0,1.53,0.15,2.38,0.46c0.28-0.46,0.61-0.86,0.99-1.2c0.38-0.34,0.77-0.6,1.18-0.79
	c0.41-0.18,0.8-0.32,1.19-0.4c0.38-0.08,0.76-0.12,1.13-0.12c0.39,0,0.8,0.04,1.24,0.13l0.8,0.25c0.12,0.06,0.17,0.13,0.14,0.23
	L22.7,6.63c-0.07,0.29-0.1,0.57-0.1,0.84c0,0.31,0.05,0.62,0.15,0.95c0.1,0.32,0.24,0.64,0.44,0.95s0.46,0.59,0.8,0.85
	c0.34,0.26,0.72,0.45,1.16,0.58l0.62,0.17c0.1,0.03,0.15,0.08,0.15,0.16c0,0.04,0,0.06-0.01,0.07l-0.19,0.68
	c-0.24,1.01-0.75,1.89-1.51,2.62c0.44,0.76,0.66,1.58,0.66,2.45c0,1.34-0.46,2.49-1.39,3.45c-0.93,0.97-2.06,1.47-3.39,1.51
	c-0.12,0-0.19-0.06-0.19-0.19v-1.36c0-0.12,0.06-0.18,0.19-0.18c0.87-0.06,1.6-0.41,2.2-1.03c0.6-0.62,0.9-1.36,0.9-2.21
	c0-0.89-0.32-1.66-0.97-2.29s-1.42-0.95-2.33-0.95h-1.62c-0.11,0-0.17-0.06-0.17-0.18l-0.07-0.58c-0.11-1.07-0.58-1.98-1.4-2.71
	c-0.82-0.73-1.77-1.1-2.86-1.1c-1.09,0-2.05,0.37-2.85,1.1c-0.81,0.73-1.27,1.64-1.37,2.72l-0.07,0.52c0,0.11-0.07,0.17-0.2,0.17
	l-0.53,0.07c-0.84,0.1-1.54,0.46-2.1,1.07c-0.57,0.62-0.85,1.34-0.85,2.17v0.02l0.01,0.01h0.02C5.83,17.5,5.95,18,6.19,18.46
	c0.24,0.46,0.56,0.84,0.97,1.14h0.01l0.01,0.01l0.01,0.01c0.22,0.16,0.42,0.27,0.62,0.35c0.34,0.15,0.69,0.23,1.07,0.24
	c0.11,0,0.17,0.06,0.17,0.17v1.34c0,0.12-0.06,0.18-0.17,0.18c-0.93-0.04-1.78-0.32-2.55-0.82H6.32c-0.66-0.43-1.19-0.99-1.59-1.69
	C4.33,18.69,4.12,17.94,4.09,17.13z M9.59,24.1c0-0.03,0.01-0.07,0.02-0.13s0.02-0.09,0.02-0.12l0.09-0.59
	c0.07-0.24,0.2-0.41,0.41-0.53s0.43-0.14,0.68-0.08c0.23,0.07,0.39,0.21,0.51,0.41c0.11,0.21,0.13,0.42,0.07,0.63l-0.14,0.6
	c-0.1,0.43-0.35,0.65-0.76,0.65c-0.03,0-0.08,0-0.15-0.01c-0.07-0.01-0.11-0.01-0.13-0.01c-0.21-0.06-0.36-0.17-0.46-0.33
	C9.64,24.43,9.59,24.27,9.59,24.1z M10.33,21.16c0-0.24,0.08-0.43,0.23-0.59s0.35-0.23,0.59-0.23s0.43,0.08,0.59,0.23
	s0.23,0.35,0.23,0.59c0,0.23-0.08,0.43-0.23,0.58s-0.35,0.23-0.59,0.23c-0.23,0-0.42-0.08-0.57-0.25
	C10.42,21.57,10.33,21.38,10.33,21.16z M11.97,27.16c0-0.04,0.01-0.11,0.04-0.22l0.13-0.59c0.07-0.23,0.21-0.4,0.41-0.51
	c0.21-0.12,0.42-0.14,0.63-0.07c0.23,0.04,0.41,0.17,0.53,0.37c0.12,0.2,0.15,0.43,0.08,0.68l-0.13,0.59
	c-0.1,0.41-0.37,0.61-0.8,0.61c-0.07,0-0.16-0.01-0.24-0.03c-0.22-0.06-0.38-0.17-0.49-0.33C12.03,27.49,11.97,27.33,11.97,27.16z
	 M12.76,24.25c0-0.23,0.08-0.42,0.23-0.58c0.16-0.16,0.35-0.23,0.59-0.23s0.43,0.08,0.59,0.23c0.16,0.16,0.23,0.35,0.23,0.58
	c0,0.24-0.08,0.43-0.23,0.59c-0.16,0.16-0.35,0.23-0.59,0.23c-0.23,0-0.42-0.08-0.58-0.24C12.84,24.67,12.76,24.48,12.76,24.25z
	 M13.38,21.98c0-0.09,0.01-0.18,0.03-0.27l0.23-0.9c0.07-0.23,0.21-0.41,0.41-0.53c0.21-0.12,0.42-0.15,0.64-0.08
	c0.24,0.07,0.41,0.2,0.53,0.4c0.12,0.2,0.14,0.41,0.07,0.63l-0.26,0.9c-0.08,0.28-0.22,0.46-0.41,0.56
	c-0.19,0.1-0.41,0.12-0.64,0.06c-0.2-0.04-0.35-0.14-0.45-0.3C13.41,22.29,13.37,22.13,13.38,21.98z M16.14,24.12
	c0-0.03,0-0.08,0.01-0.13s0.01-0.09,0.01-0.11l0.09-0.59c0.07-0.24,0.2-0.41,0.41-0.53s0.43-0.14,0.68-0.08
	c0.23,0.07,0.4,0.21,0.51,0.41c0.12,0.21,0.14,0.42,0.07,0.63l-0.14,0.6c-0.1,0.44-0.35,0.66-0.76,0.66c-0.03,0-0.08-0.01-0.14-0.02
	c-0.06-0.01-0.11-0.02-0.14-0.02c-0.2-0.06-0.35-0.17-0.45-0.33S16.14,24.29,16.14,24.12z M16.88,21.18c0-0.24,0.08-0.43,0.23-0.59
	s0.35-0.23,0.59-0.23c0.24,0,0.43,0.08,0.59,0.23c0.16,0.16,0.23,0.35,0.23,0.59c0,0.23-0.08,0.42-0.23,0.58
	c-0.16,0.16-0.35,0.23-0.59,0.23c-0.24,0-0.43-0.08-0.58-0.24C16.97,21.6,16.88,21.41,16.88,21.18z M17.59,8.82
	c1.04,0.85,1.7,1.9,1.98,3.16h0.33c1.23,0,2.3,0.39,3.22,1.18c0.34-0.31,0.59-0.65,0.76-1.04c-0.62-0.3-1.15-0.7-1.61-1.21
	c-0.45-0.51-0.79-1.06-1.02-1.66c-0.23-0.6-0.34-1.22-0.34-1.86V7.09h-0.22c-0.62,0-1.21,0.15-1.77,0.45
	C18.36,7.84,17.92,8.27,17.59,8.82z"/>
</svg>
